static/logos/linear-wordmark-color.svg

<svg width="100" height="22" viewBox="0 0 100 22" fill="none" xmlns="http://www.w3.org/2000/svg">
<g clip-path="url(#clip0_1_2178)">
<path d="M38.5547 17.8567H48.0943V15.2905H41.7055V3.13566H38.5547V17.8567ZM50.1226 17.8567H53.2226V6.8159H50.1226V17.8567ZM51.6799 5.50769C52.5823 5.50769 53.3608 4.83202 53.3608 3.95508C53.3608 3.08534 52.5823 2.40967 51.6799 2.40967C50.7849 2.40967 50.0064 3.08534 50.0064 3.95508C50.0064 4.83202 50.7849 5.50769 51.6799 5.50769ZM58.8057 11.4737C58.8128 10.0505 59.6716 9.21668 60.923 9.21668C62.1675 9.21668 62.917 10.0217 62.9096 11.3731V17.8567H66.0095V10.8268C66.0095 8.2535 64.4814 6.67214 62.1529 6.67214C60.4937 6.67214 59.2931 7.4772 58.7911 8.76384H58.66V6.8159H55.7056V17.8567H58.8057V11.4737ZM73.5754 18.0723C76.3478 18.0723 78.2034 16.7424 78.64 14.6939L75.7802 14.507C75.4672 15.3481 74.6595 15.7865 73.6335 15.7865C72.0836 15.7865 71.1013 14.7729 71.1013 13.1269V13.1198H78.7126V12.2787C78.7126 8.52663 76.4132 6.67214 73.4589 6.67214C70.1699 6.67214 68.0378 8.97947 68.0378 12.3865C68.0378 15.8871 70.1408 18.0723 73.5754 18.0723ZM71.1013 11.2221C71.1596 9.96423 72.1346 8.95792 73.5099 8.95792C74.8488 8.95792 75.7802 9.90673 75.7948 11.2221H71.1013ZM83.9665 18.0651C85.6182 18.0651 86.6879 17.3535 87.2336 16.3256H87.3209V17.8567H90.2607V10.4099C90.2607 7.77909 87.9831 6.67214 85.5672 6.67214C82.8167 6.67214 81.0776 7.93722 80.6483 9.94986L83.5152 10.1799C83.7263 9.4467 84.3884 8.9076 85.5018 8.9076C86.5714 8.9076 87.1536 9.42514 87.161 10.3524C87.1682 11.0784 86.3969 11.1862 84.454 11.3731C82.2418 11.5743 80.2553 12.3075 80.2553 14.7729C80.2553 16.9581 81.8343 18.0651 83.9665 18.0651ZM84.8542 15.9518C83.9009 15.9518 83.217 15.5134 83.217 14.6723C83.217 13.8098 83.9373 13.3857 85.0288 13.2347C85.7054 13.1414 86.8116 12.9832 87.1826 12.7388V13.9105C87.1826 15.0677 86.2149 15.9518 84.8542 15.9518ZM92.6655 17.8567H95.7655V11.6103C95.7728 10.2589 96.7624 9.33169 98.014 9.33169C98.436 9.33169 98.7781 9.4467 99.069 9.59046L100 7.06029C99.593 6.8159 99.069 6.65776 98.4724 6.65776C97.2136 6.65776 96.1948 7.37656 95.7873 8.74228H95.671V6.8159H92.6655V17.8567Z" fill="black"/>
<path d="M0.132812 12.6729L9.01011 21.5502C4.47676 20.7838 0.899103 17.2063 0.132812 12.6729Z" fill="#5E6AD2"/>
<path d="M0 10.2629L11.4239 21.6867C12.1033 21.6505 12.7661 21.5517 13.4066 21.396L0.290735 8.28012C0.135094 8.92069 0.0363016 9.58346 0 10.2629Z" fill="#5E6AD2"/>
<path d="M0.859375 6.57524L15.1116 20.8275C15.6307 20.6047 16.1289 20.3425 16.6025 20.0448L1.64196 5.08435C1.34427 5.55794 1.08216 6.05616 0.859375 6.57524Z" fill="#5E6AD2"/>
<path d="M2.60938 3.77645C4.59936 1.46417 7.54741 0 10.8374 0C16.8303 0 21.6886 4.85824 21.6886 10.8512C21.6886 14.1412 20.2244 17.0893 17.9121 19.0793L2.60938 3.77645Z" fill="#5E6AD2"/>
</g>
<defs>
<clipPath id="clip0_1_2178">
<rect width="100" height="21.6867" fill="white"/>
</clipPath>
</defs>
</svg>

<svg xmlns="http://www.w3.org/2000/svg" width="290.909" height="64" fill="none" viewBox="0 0 100 22"><g clip-path="url(#a)"><path fill="#000" d="M38.555 17.857h9.54V15.29h-6.39V3.136h-3.15v14.72Zm11.568 0h3.1V6.816h-3.1v11.04Zm1.557-12.35c.902 0 1.68-.675 1.68-1.552 0-.87-.778-1.545-1.68-1.545-.895 0-1.674.675-1.674 1.545 0 .877.779 1.553 1.674 1.553Zm7.126 5.967c.007-1.424.866-2.257 2.117-2.257 1.244 0 1.994.805 1.987 2.156v6.484h3.1v-7.03c0-2.573-1.529-4.155-3.857-4.155-1.66 0-2.86.805-3.362 2.092h-.131V6.816h-2.954v11.04h3.1v-6.382Zm14.77 6.598c2.772 0 4.627-1.33 5.064-3.378l-2.86-.187c-.313.841-1.12 1.28-2.147 1.28-1.55 0-2.532-1.014-2.532-2.66v-.007h7.612v-.841c0-3.752-2.3-5.607-5.254-5.607-3.29 0-5.421 2.307-5.421 5.715 0 3.5 2.103 5.685 5.537 5.685Zm-2.475-6.85c.059-1.258 1.034-2.264 2.409-2.264 1.339 0 2.27.949 2.285 2.264H71.1Zm12.865 6.843c1.652 0 2.722-.712 3.268-1.74h.087v1.532h2.94V10.41c0-2.63-2.278-3.738-4.694-3.738-2.75 0-4.49 1.265-4.919 3.278l2.867.23c.211-.733.873-1.272 1.987-1.272 1.07 0 1.652.517 1.659 1.444.007.726-.764.834-2.707 1.021-2.212.201-4.199.934-4.199 3.4 0 2.185 1.58 3.292 3.712 3.292Zm.888-2.113c-.953 0-1.637-.439-1.637-1.28 0-.862.72-1.286 1.812-1.437.676-.094 1.783-.252 2.154-.496v1.171c0 1.158-.968 2.042-2.329 2.042Zm7.811 1.905h3.1V11.61c.008-1.351.997-2.278 2.249-2.278.422 0 .764.115 1.055.258L100 7.06a2.967 2.967 0 0 0-1.528-.402c-1.258 0-2.277.719-2.685 2.084h-.116V6.816h-3.006v11.04Z"/><path fill="#5E6AD2" d="M.133 12.673 9.01 21.55a10.86 10.86 0 0 1-8.877-8.877ZM0 10.263l11.424 11.424c.68-.037 1.342-.135 1.983-.291L.29 8.28C.135 8.92.036 9.583 0 10.263ZM.86 6.575l14.252 14.252c.519-.222 1.017-.485 1.49-.782L1.642 5.085c-.298.473-.56.971-.783 1.49ZM2.61 3.776A10.827 10.827 0 0 1 10.836 0C16.83 0 21.69 4.858 21.69 10.851c0 3.29-1.465 6.238-3.777 8.228L2.61 3.776Z"/></g><defs><clipPath id="a"><path fill="#fff" d="M0 0h100v21.687H0z"/></clipPath></defs></svg>
